packages/bezier-icons/icons/open-in-new.svg

<svg width="24" height="24" viewBox="0 0 24 24" fill="none" xmlns="http://www.w3.org/2000/svg">
<path fill-rule="evenodd" clip-rule="evenodd" d="M10.3572 3L12 3V5H10.4C9.26341 5 8.4711 5.00078 7.85426 5.05118C7.24909 5.10062 6.9014 5.19279 6.63804 5.32698C6.07356 5.6146 5.61462 6.07354 5.327 6.63803C5.19281 6.90138 5.10064 7.24907 5.05119 7.85424C5.00079 8.47108 5.00002 9.26339 5.00002 10.4V13.6C5.00002 14.7366 5.00079 15.5289 5.05119 16.1458C5.10064 16.7509 5.19281 17.0986 5.327 17.362C5.61462 17.9265 6.07356 18.3854 6.63804 18.673C6.9014 18.8072 7.24909 18.8994 7.85426 18.9488C8.4711 18.9992 9.26341 19 10.4 19H13.6C14.7366 19 15.5289 18.9992 16.1458 18.9488C16.7509 18.8994 17.0986 18.8072 17.362 18.673C17.9265 18.3854 18.3854 17.9265 18.673 17.362C18.8072 17.0986 18.8994 16.7509 18.9488 16.1458C18.9992 15.5289 19 14.7366 19 13.6V12H21V13.6428C21 14.7266 21 15.6008 20.9422 16.3086C20.8826 17.0375 20.7568 17.6777 20.455 18.27C19.9757 19.2108 19.2108 19.9757 18.27 20.455C17.6777 20.7568 17.0375 20.8826 16.3086 20.9422C15.6008 21 14.7266 21 13.6428 21H10.3572C9.27341 21 8.39927 21 7.69139 20.9422C6.96254 20.8826 6.32235 20.7568 5.73006 20.455C4.78925 19.9757 4.02435 19.2108 3.54498 18.27C3.2432 17.6777 3.11738 17.0375 3.05783 16.3086C3 15.6007 3.00001 14.7266 3.00002 13.6428V10.3572C3.00001 9.27341 3 8.39926 3.05783 7.69138C3.11738 6.96253 3.2432 6.32234 3.54498 5.73005C4.02435 4.78924 4.78925 4.02433 5.73006 3.54497C6.32235 3.24318 6.96254 3.11737 7.69139 3.05782C8.39927 2.99998 9.27342 2.99999 10.3572 3Z" fill="#313234"/>
<path d="M20.8083 8.58819C21 8.36376 21 7.87911 21 6.90981V4.6C21 4.03996 21 3.75992 20.891 3.54601C20.7951 3.35785 20.6421 3.20487 20.454 3.10899C20.2401 3 19.96 3 19.4 3H17.0902C16.1209 3 15.6362 3 15.4118 3.19168C15.2171 3.35799 15.1137 3.60747 15.1338 3.86277C15.157 4.15699 15.4997 4.49969 16.1851 5.1851L16.7929 5.7929L11.7929 10.7929C11.4024 11.1834 11.4024 11.8166 11.7929 12.2071C12.1834 12.5976 12.8166 12.5976 13.2071 12.2071L18.2071 7.20711L18.8149 7.8149C19.5003 8.50031 19.843 8.84301 20.1372 8.86616C20.3925 8.88625 20.642 8.78292 20.8083 8.58819Z" fill="#313234"/>
</svg>

<svg xmlns="http://www.w3.org/2000/svg" width="24" height="24" fill="none" viewBox="0 0 24 24"><path fill="#313234" fill-rule="evenodd" d="M10.357 3H12v2h-1.6c-1.137 0-1.929 0-2.546.051-.605.05-.953.142-1.216.276a3 3 0 0 0-1.311 1.311c-.134.263-.226.611-.276 1.216C5.001 8.471 5 9.264 5 10.4v3.2c0 1.137 0 1.929.051 2.546.05.605.142.953.276 1.216a3 3 0 0 0 1.311 1.311c.263.134.611.226 1.216.276.617.05 1.41.051 2.546.051h3.2c1.137 0 1.929 0 2.546-.051.605-.05.953-.142 1.216-.276a3 3 0 0 0 1.311-1.311c.134-.263.226-.611.276-1.216.05-.617.051-1.41.051-2.546V12h2v1.643c0 1.084 0 1.958-.058 2.666-.06.729-.185 1.369-.487 1.961a5 5 0 0 1-2.185 2.185c-.592.302-1.232.428-1.961.487C15.6 21 14.727 21 13.643 21h-3.286c-1.084 0-1.958 0-2.666-.058-.728-.06-1.369-.185-1.96-.487a5 5 0 0 1-2.186-2.185c-.302-.592-.428-1.232-.487-1.961C3 15.6 3 14.727 3 13.643v-3.286c0-1.084 0-1.958.058-2.666.06-.728.185-1.369.487-1.96A5 5 0 0 1 5.73 3.544c.592-.302 1.233-.428 1.961-.487C8.4 3 9.273 3 10.357 3" clip-rule="evenodd"/><path fill="#313234" d="M20.808 8.588C21 8.364 21 7.88 21 6.91V4.6c0-.56 0-.84-.109-1.054a1 1 0 0 0-.437-.437C20.24 3 19.96 3 19.4 3h-2.31c-.97 0-1.454 0-1.678.192a.8.8 0 0 0-.278.67c.023.295.366.638 1.051 1.323l.608.608-5 5a1 1 0 0 0 1.414 1.414l5-5 .608.608c.685.685 1.028 1.028 1.322 1.051a.8.8 0 0 0 .671-.278"/></svg>
